X:39071
T: Dunnottar Castle
C: John Robertson
N: 40-bar version for the dance "The Duke and Duchess of Edinburgh"
B: RSCDS 39-7(I)
R: reel
Z: 2003 John Chambers <jc:trillian.mit.edu>
M: C|
L: 1/8
%--------------------
K: A
|: E \
|| "A"AGAB AGFE | AEAc e2dc | "E7"dcBd "A"cBAc | "Bm"BcdB "E7"AGFE |
|  "A"AGAB AGFE | AEAc e2dc | "E7"dcBd "A"cBAc | "Bm"Bcd^d "E7"e^efg ||
|| "A"a2-ag agfe | "D"fdAf "A"e2ce | "D"fedf "A"e2ac | "B7"dcBA "E7"AGFE |
|  "A"AGAB ABcd | e2fa "A7"e2Ae | "D"fdfg "A"aecA | "E7"cBAG "A"A2-A :|
e \
| "A"a2-ag agfe | "D"fdAf "A"e2ce | "D"fedf "A"e2ac | "B7"dcBA "E7"AGFE |
|  "A"AGAB ABcd | e2fa "A7"e2Ae | "D"fdfg "A"afec | "E7"efge "A"a2-a |]
